assets/images/call-dark.svg

<svg fill="none" height="15" viewBox="0 0 16 15" width="16" xmlns="http://www.w3.org/2000/svg"><path d="m14.5702 11.746c-.7998-.6954-1.6841-1.287-2.632-1.76102-.789-.379-1.078-.371-1.636.03102-.46504.336-.76504.648-1.30004.531-1.93418-1.02855-3.5169-2.6116-4.545-4.54602-.113-.539.2-.836.531-1.3.4-.558.414-.847.031-1.636-.47163-.94926-1.06349-1.83386-1.761-2.631997-.574-.574-.7-.4489987-1.019-.3359987-.32559.1378797-.63789.3052427-.933.4999997-.482137.275172-.872155.686756-1.120999 1.182996-.2230001.48-.479999 1.375.831999 3.71.96804 1.78794 2.1942 3.42349 3.639 4.85402 1.4312 1.4443 3.06663 2.6707 4.854 3.64 2.33504 1.312 3.22904 1.054 3.71004.832.4979-.2465.9101-.6371 1.183-1.121.1947-.2951.3621-.6074.5-.933.116-.313.243-.442-.333-1.016z" fill="#000"/></svg>

<svg width="16" height="15" viewBox="0 0 16 15" fill="none" xmlns="http://www.w3.org/2000/svg">
<path d="M14.5702 11.746C13.7704 11.0506 12.8861 10.459 11.9382 9.98498C11.1492 9.60598 10.8602 9.61398 10.3022 10.016C9.83716 10.352 9.53716 10.664 9.00216 10.547C7.06798 9.51845 5.48526 7.9354 4.45716 6.00098C4.34416 5.46198 4.65716 5.16498 4.98816 4.70098C5.38816 4.14298 5.40216 3.85398 5.01916 3.06498C4.54753 2.11572 3.95567 1.23112 3.25816 0.432983C2.68416 -0.141017 2.55816 -0.0160157 2.23916 0.0969843C1.91357 0.234864 1.60127 0.402227 1.30616 0.596984C0.824023 0.872156 0.434005 1.28374 0.185161 1.77998C-0.0378391 2.25998 -0.294838 3.15498 1.01716 5.48998C1.9852 7.27792 3.21136 8.91347 4.65616 10.344C6.08736 11.7883 7.72279 13.0147 9.51016 13.984C11.8452 15.296 12.7392 15.038 13.2202 14.816C13.7181 14.5695 14.1303 14.1789 14.4032 13.695C14.5979 13.3999 14.7653 13.0876 14.9032 12.762C15.0192 12.449 15.1462 12.32 14.5702 11.746Z" fill="black"/>
</svg>
